skin/frontend/rwd/dhh/images/light.svg

<?xml version="1.0"?>
<svg xmlns="http://www.w3.org/2000/svg" height="512px" version="1.1" viewBox="0 0 512.001 512" width="512px">
<g id="surface1">
<path d="M 256 0 C 167.996094 0 96.398438 71.597656 96.398438 159.601562 C 96.398438 210.25 120.277344 257.511719 160.664062 287.605469 L 160.664062 300.933594 C 150.828125 309.578125 144.601562 322.238281 144.601562 336.332031 C 144.601562 348.742188 149.429688 360.042969 157.296875 368.46875 C 149.429688 376.894531 144.601562 388.191406 144.601562 400.601562 C 144.601562 421.742188 158.589844 439.675781 177.800781 445.628906 C 183.980469 483.222656 216.683594 512 256 512 C 295.316406 512 328.023438 483.222656 334.203125 445.628906 C 353.410156 439.671875 367.402344 421.742188 367.402344 400.597656 C 367.402344 388.191406 362.574219 376.890625 354.707031 368.464844 C 362.574219 360.039062 367.402344 348.742188 367.402344 336.332031 C 367.402344 322.238281 361.175781 309.578125 351.335938 300.929688 L 351.335938 287.605469 C 391.722656 257.511719 415.601562 210.25 415.601562 159.601562 C 415.601562 71.597656 344.003906 0 256 0 Z M 320.269531 319.199219 C 329.714844 319.199219 337.402344 326.886719 337.402344 336.332031 C 337.402344 345.78125 329.714844 353.46875 320.269531 353.46875 L 191.734375 353.46875 C 182.285156 353.46875 174.597656 345.78125 174.597656 336.332031 C 174.597656 326.886719 182.285156 319.199219 191.734375 319.199219 Z M 256 482 C 234.0625 482 215.429688 467.585938 209.066406 447.734375 L 302.933594 447.734375 C 296.574219 467.589844 277.9375 482 256 482 Z M 320.269531 417.734375 L 191.734375 417.734375 C 182.285156 417.734375 174.597656 410.046875 174.597656 400.601562 C 174.597656 391.152344 182.285156 383.46875 191.734375 383.46875 L 320.269531 383.46875 C 329.714844 383.46875 337.402344 391.152344 337.402344 400.601562 C 337.402344 410.046875 329.714844 417.734375 320.269531 417.734375 Z M 327.992188 267.378906 C 323.832031 270.164062 321.335938 274.839844 321.335938 279.84375 L 321.335938 289.226562 C 320.980469 289.21875 320.625 289.199219 320.269531 289.199219 L 303.132812 289.199219 L 303.132812 230.082031 L 324.671875 208.542969 C 330.53125 202.683594 330.53125 193.1875 324.671875 187.328125 C 318.816406 181.46875 309.316406 181.46875 303.460938 187.328125 L 277.527344 213.261719 C 274.714844 216.074219 273.132812 219.886719 273.132812 223.867188 L 273.132812 289.199219 L 238.867188 289.199219 L 238.867188 223.867188 C 238.867188 219.890625 237.285156 216.074219 234.472656 213.261719 L 208.539062 187.328125 C 202.683594 181.472656 193.1875 181.472656 187.328125 187.328125 C 181.46875 193.1875 181.46875 202.683594 187.328125 208.542969 L 208.867188 230.082031 L 208.867188 289.203125 L 191.734375 289.203125 C 191.375 289.203125 191.019531 289.21875 190.664062 289.226562 L 190.664062 279.84375 C 190.664062 274.839844 188.167969 270.164062 184.007812 267.378906 C 147.9375 243.230469 126.398438 202.941406 126.398438 159.601562 C 126.398438 88.136719 184.539062 30 256 30 C 327.460938 30 385.601562 88.136719 385.601562 159.601562 C 385.601562 202.941406 364.0625 243.230469 327.992188 267.378906 Z M 327.992188 267.378906 " style=" fill-rule:nonzero;fill-opacity:1;" stroke="#2aacdb" fill="#2aacdb"/>
<path d="M 62.132812 159.601562 C 62.132812 151.316406 55.417969 144.601562 47.132812 144.601562 L 15 144.601562 C 6.714844 144.601562 0 151.316406 0 159.601562 C 0 167.882812 6.714844 174.601562 15 174.601562 L 47.132812 174.601562 C 55.417969 174.601562 62.132812 167.882812 62.132812 159.601562 Z M 62.132812 159.601562 " style=" fill-rule:nonzero;fill-opacity:1;" stroke="#2aacdb" fill="#2aacdb"/>
<path d="M 497 144.601562 L 464.867188 144.601562 C 456.585938 144.601562 449.867188 151.316406 449.867188 159.601562 C 449.867188 167.882812 456.585938 174.601562 464.867188 174.601562 L 497 174.601562 C 505.285156 174.601562 512 167.882812 512 159.601562 C 512 151.316406 505.285156 144.601562 497 144.601562 Z M 497 144.601562 " style=" fill-rule:nonzero;fill-opacity:1;" stroke="#2aacdb" fill="#2aacdb"/>
<path d="M 67.613281 251.042969 L 39.785156 267.109375 C 32.613281 271.253906 30.15625 280.425781 34.296875 287.601562 C 37.074219 292.414062 42.117188 295.101562 47.300781 295.101562 C 49.84375 295.101562 52.425781 294.457031 54.785156 293.089844 L 82.613281 277.027344 C 89.789062 272.882812 92.246094 263.710938 88.105469 256.535156 C 83.964844 249.359375 74.789062 246.902344 67.613281 251.042969 Z M 67.613281 251.042969 " style=" fill-rule:nonzero;fill-opacity:1;" stroke="#2aacdb" fill="#2aacdb"/>
<path d="M 436.898438 70.171875 C 439.441406 70.171875 442.019531 69.523438 444.382812 68.160156 L 472.214844 52.089844 C 479.386719 47.949219 481.847656 38.777344 477.703125 31.601562 C 473.558594 24.425781 464.386719 21.96875 457.214844 26.113281 L 429.382812 42.179688 C 422.210938 46.320312 419.75 55.496094 423.894531 62.667969 C 426.671875 67.480469 431.714844 70.171875 436.898438 70.171875 Z M 436.898438 70.171875 " style=" fill-rule:nonzero;fill-opacity:1;" stroke="#2aacdb" fill="#2aacdb"/>
<path d="M 472.210938 267.109375 L 444.382812 251.046875 C 437.207031 246.90625 428.03125 249.363281 423.890625 256.539062 C 419.75 263.710938 422.210938 272.886719 429.382812 277.027344 L 457.214844 293.089844 C 459.574219 294.453125 462.152344 295.101562 464.699219 295.101562 C 469.882812 295.101562 474.925781 292.410156 477.703125 287.597656 C 481.847656 280.425781 479.386719 271.25 472.210938 267.109375 Z M 472.210938 267.109375 " style=" fill-rule:nonzero;fill-opacity:1;" stroke="#2aacdb" fill="#2aacdb"/>
<path d="M 82.617188 42.175781 L 54.789062 26.113281 C 47.613281 21.96875 38.441406 24.429688 34.300781 31.605469 C 30.15625 38.78125 32.617188 47.953125 39.789062 52.09375 L 67.617188 68.160156 C 69.980469 69.523438 72.558594 70.171875 75.101562 70.171875 C 80.289062 70.171875 85.328125 67.480469 88.109375 62.667969 C 92.25 55.492188 89.789062 46.320312 82.617188 42.175781 Z M 82.617188 42.175781 " style=" fill-rule:nonzero;fill-opacity:1;" stroke="#2aacdb" fill="#2aacdb"/>
</g>
</svg>

<?xml version="1.0" encoding="UTF-8" standalone="no"?>
<svg viewBox="0 0 512.001 512" width="512px" xmlns="http://www.w3.org/2000/svg" version="1.1" height="512px">
 <g id="surface1" stroke="#2aacdb" fill="#2aacdb">
  <path d="m256 0c-88 0-159.6 71.598-159.6 159.6-0.002 50.65 23.88 97.91 64.26 128.01v13.32c-9.83 8.65-16.06 21.31-16.06 35.4 0 12.41 4.83 23.71 12.7 32.14-7.87 8.42-12.7 19.72-12.7 32.13 0 21.14 13.99 39.08 33.2 45.03 6.18 37.59 38.88 66.37 78.2 66.37s72.02-28.78 78.2-66.37c19.21-5.96 33.2-23.89 33.2-45.03 0-12.41-4.83-23.71-12.69-32.14 7.86-8.42 12.69-19.72 12.69-32.13 0-14.09-6.22-26.75-16.06-35.4v-13.32c40.38-30.1 64.26-77.36 64.26-128.01 0-88.002-71.6-159.6-159.6-159.6zm64.27 319.2c9.44 0 17.13 7.69 17.13 17.13 0 9.45-7.69 17.14-17.13 17.14h-128.54c-9.44 0-17.13-7.69-17.13-17.14 0-9.44 7.69-17.13 17.13-17.13zm-64.27 162.8c-21.94 0-40.57-14.41-46.93-34.27h93.86c-6.36 19.86-24.99 34.27-46.93 34.27zm64.27-64.27h-128.54c-9.44 0-17.13-7.68-17.13-17.13s7.69-17.13 17.13-17.13h128.54c9.44 0 17.13 7.68 17.13 17.13s-7.69 17.13-17.13 17.13zm7.72-150.35c-4.16 2.78-6.65 7.46-6.65 12.46v9.39c-0.36-0.01-0.72-0.03-1.07-0.03h-17.14v-59.12l21.54-21.54c5.86-5.86 5.86-15.35 0-21.21-5.85-5.86-15.35-5.86-21.21 0l-25.93 25.93c-2.82 2.81-4.4 6.63-4.4 10.61v65.33h-34.26v-65.33c0-3.98-1.58-7.8-4.4-10.61l-25.93-25.93c-5.86-5.86-15.35-5.86-21.21 0s-5.86 15.35 0 21.21l21.54 21.54v59.12h-17.14c-0.35 0-0.71 0.02-1.07 0.03v-9.39c0-5-2.49-9.68-6.65-12.46-36.07-24.15-57.61-64.44-57.61-107.78 0-71.463 58.14-129.6 129.6-129.6s129.6 58.137 129.6 129.6c0 43.34-21.54 83.63-57.61 107.78z"/>
  <path d="m62.133 159.6c0-8.28-6.715-15-15-15h-32.133c-8.2852 0-15 6.72-15 15s6.7148 15 15 15h32.133c8.285 0 15-6.72 15-15z"/>
  <path d="m497 144.6h-32.13c-8.28 0-15 6.72-15 15s6.72 15 15 15h32.13c8.29 0 15-6.72 15-15s-6.71-15-15-15z"/>
  <path d="m67.613 251.04l-27.828 16.07c-7.172 4.14-9.629 13.32-5.488 20.49 2.777 4.81 7.82 7.5 13.004 7.5 2.543 0 5.125-0.64 7.484-2.01l27.828-16.06c7.176-4.15 9.633-13.32 5.492-20.49-4.14-7.18-13.316-9.64-20.492-5.5z"/>
  <path d="m436.9 70.172c2.54 0 5.12-0.649 7.48-2.012l27.83-16.07c7.18-4.141 9.64-13.313 5.49-20.488-4.14-7.176-13.31-9.633-20.49-5.489l-27.83 16.067c-7.17 4.14-9.63 13.316-5.49 20.488 2.78 4.812 7.82 7.504 13.01 7.504z"/>
  <path d="m472.21 267.11l-27.83-16.06c-7.17-4.14-16.35-1.69-20.49 5.49-4.14 7.17-1.68 16.35 5.49 20.49l27.83 16.06c2.36 1.36 4.94 2.01 7.49 2.01 5.18 0 10.23-2.69 13-7.5 4.15-7.17 1.69-16.35-5.49-20.49z"/>
  <path d="m82.617 42.176l-27.828-16.063c-7.176-4.144-16.348-1.683-20.488 5.492-4.145 7.176-1.684 16.348 5.488 20.489l27.828 16.066c2.363 1.363 4.942 2.012 7.485 2.012 5.187 0 10.226-2.692 13.007-7.504 4.141-7.176 1.68-16.348-5.492-20.492z"/>
 </g>
</svg>
